projects/plugins/jetpack/images/products/product-jetpack-boost.svg

<svg fill="none" height="128" viewBox="0 0 128 128" width="128" xmlns="http://www.w3.org/2000/svg"><rect fill="#2c3338" height="103.619" rx="12.1905" width="103.619" x="12.1904" y="12.1905"/><path clip-rule="evenodd" d="m42.6665 48.3455 16.0778 17.686-16.0778 17.686 2.8946 2.6315 17.2739-19.0017 1.1961-1.3157-1.1961-1.3158-17.2739-19.0017zm20.7267 0 16.0778 17.686-16.0778 17.686 2.8946 2.6315 17.2739-19.0017 1.1961-1.3157-1.1961-1.3158-17.2739-19.0017z" fill="#fff" fill-rule="evenodd"/></svg>

<svg width="128" height="128" viewBox="0 0 128 128" fill="none" xmlns="http://www.w3.org/2000/svg">
<rect x="12.1904" y="12.1905" width="103.619" height="103.619" rx="12.1905" fill="#2C3338"/>
<g style="mix-blend-mode:screen">
<path fill-rule="evenodd" clip-rule="evenodd" d="M42.6665 48.3455L58.7443 66.0315L42.6665 83.7175L45.5611 86.349L62.835 67.3473L64.0311 66.0316L62.835 64.7158L45.5611 45.7141L42.6665 48.3455ZM63.3932 48.3455L79.471 66.0315L63.3932 83.7175L66.2878 86.349L83.5617 67.3473L84.7578 66.0316L83.5617 64.7158L66.2878 45.7141L63.3932 48.3455Z" fill="white"/>
</g>
</svg>
